!!!COM: Gomółka, Mikołaj
!!!CDT: ~1535-after 1591
!!!OTL@POL: Panie, za Twoją zawżdy pomocą
!!!OTL@LAT: Domine, in virtute tua
!!!AGn: Motet; Psalm
!!!SCn: Gom2021
!!!SCn: Gom2021
!!!voices: 4
**kern	**kern	**kern	**kern
*staff4	*staff3	*staff2	*staff1
*Ivox	*Ivox	*Ivox	*Ivox
*I"Bassus	*I"Tenor	*I"Altus	*I"Cantus
*I'B	*I'T	*I'A	*I'C
*clefF4	*clefGv2	*clefGv2	*clefG2
*k[b-]	*k[b-]	*k[b-]	*k[b-]
*M2/1	*M2/1	*M2/1	*M2/1
*met(C|)	*met(C|)	*met(C|)	*met(C|)
=1-	=1-	=1-	=1-
1r	1r	1r	1f
1C	1c	1e	[1cc
=2	=2	=2	=2
2F	2c	2f	2cc]
2F	2f	2a	2cc
2c	2e	2g	2cc
2F	2f	2a	2cc
=3	=3	=3	=3
1G	1d	2.g	1b-
.	.	4f	.
2A	2c	2e	2a
2D	2d	2f	2a
=4	=4	=4	=4
1B-	1d	1f	1b-
1F	2c	2.f	1a
.	[2c	.	.
.	.	4e	.
=5	=5	=5	=5
2G	2c]	4d	2g
.	.	4c	.
2G	2Bni	2d	2g
2C	2c	2e	2g
2C	2G	2e	2cc
=6	=6	=6	=6
2F	2A	2f	2a
2D	2B-	2f	2dd
2E-	2B-	2g	2b-
2C	2c	2g	2ee-i
=7	=7	=7	=7
1G	1d	1g	1dd
2C	2e	2g	2.cc
2C	2c	2g	.
.	.	.	4b-
=8	=8	=8	=8
2D	2F	2f	2a
2E	2G	4e	4g
.	.	4d	4a
2F	2A	2c	4g
.	.	.	4f
2BB-	4B-	2d	[2f
.	4A	.	.
=9	=9	=9	=9
1C	4G	2.c	2f]
.	4F	.	.
.	2G	.	2e
.	.	4B-	.
1F	1F	1A	1f
=10	=10	=10	=10
1F	1c	1f	1a
2B-	2.d	2.f	2.b-
2F	.	.	.
.	4c	4e	4a
=11	=11	=11	=11
2G	2Bn	2d	2g
2A	1c	2c	2f
1G	.	1d	1g
.	2B	.	.
=12	=12	=12	=12
2C	2c	2e	2g
2c	2e	2g	2cc
2c	2e	2g	2cc
2A	2f	2a	2cc
=13	=13	=13	=13
2B-	2f	2g	2dd
2c	2e	2g	4cc
.	.	.	4b-
2F	2f	2a	2a
2D	2f	2a	2dd
=14	=14	=14	=14
2D	2.d	2a	2ff
2BB-	.	2b-	2ff
.	4e	.	.
1D	1f	2.a	1dd
.	.	4b-	.
=15	=15	=15	=15
1C	4g	2.cc	2ee
.	4f	.	.
.	4e	.	2g
.	4d	4b-	.
1C	2.e	2a	2.cc
.	.	2g	.
.	4d	.	4b-
=16	=16	=16	=16
2.F	4c	2f	2.a
.	4B-	.	.
.	2A	2c	.
4E	.	.	4g
2D	2.d	2.f	2f
2BB-	.	.	4b-
.	4c	4e	4a
=17	=17	=17	=17
2D	4B-	4d	4g
.	4A	4c	4f
2D	4G	2d	4g
.	4F	.	4a
1C	1G	4e	2.cc
.	.	2f	.
.	.	4e	4b-
=18	=18	=18	=18
0F	0F	0f	0a
==	==	==	==
*-	*-	*-	*-
!!!CNT: Polish
!!!OCY: Poland
!!!LYR: Jan Kochanowski (1530-1584/08/22)
!!!GTL: Melodiae na Psałterz Polski
!!!EFL: 21/150
!!!PPR: Łazarz Andrysowicz
!!!PPP: Kraków
!!!PDT: 1580
!!!YEC: 2015 Marcin Konik
!!!ENC: Marcin Konik
!!!END: 2015/05/19
!!!EED: Marcin Konik
!!!EEV: 2015/05/19
!!!ONB: Translated from MusicXML and edited on 2015/03/06 by Marcin Konik
!!!CharacterEncoding: utf-8
!!muse2ps: i2I150v85,85,85,150Q16
!!title: @{OTL}, @{GTL}, ed. @{ENC}
